X:222
T: Edelmann und Schferin (7b), S. 43f
N: T0110
O: Luxemburg
S: Singendes Volk, Esch-Alzette 1937 posth.]
N: STRASSEN; gesungen von Frau Dumont,
N: geb. Karoline Witry am 13.12.1932
R: "erzhlendes Lied"]
M: 6/8
L: 1/16
K: G
D2 | G2G2G2G2A2B2 | B4A2A4
BB | B4AAA4BB | B2A2A2A4
D2 | G2G2G2G2A2B2 | B4A2A4
BB | B4AAA4BB | B2A2A2A4
DD | G2G2G2G2A2B2 | B4A2A4

@@@ Tune index: 8276
